X: 184
T:Lost My Love
% Nottingham Music Database
S:McCusker Brothers, via EF
Y:AB
M:6/8
K:Am
P:A
E|"Am"ABA "G7"AGE|"C"c3 c2d|"C"efe "G7"edc|"C"g3 e2"F"a|
"C"gec cde|"G"dBG GAB|"Am"c2A "Em"B2G|"Am"cAA A2:|
P:B
a|"Am"aba age|"Em"gag geg|"Am"aba age|"Em"g3 e2a|
"C"gec cde|"G"dBG GAB|"Am"c2A "Em"B2G|"Am"cAA A2:|


